X: 60
T:The London Gentlewoman
T:The Hemp-Dresser
M:6/8
L:1/8
Q:110
R:Jig
K:G
B>cd d2c|B>cd D>EF|G2G G2A|B3 c3||
B>AB G>AB|A>GA D>EF|G2G G2A|B3 c3||

